bundles/org.openhab.ui.habpanel/web/assets/icons/smarthome-set/pool.svg

<?xml version="1.0" encoding="UTF-8" standalone="no"?>
<svg width="32px" height="32px" viewBox="0 0 32 32" version="1.1" xmlns="http://www.w3.org/2000/svg" xmlns:xlink="http://www.w3.org/1999/xlink" xmlns:sketch="http://www.bohemiancoding.com/sketch/ns">
    <!-- Generator: Sketch 3.3.2 (12043) - http://www.bohemiancoding.com/sketch -->
    <title>pool</title>
    <desc>Created with Sketch.</desc>
    <defs></defs>
    <g id="flatten" stroke="none" stroke-width="1" fill="none" fill-rule="evenodd" sketch:type="MSPage">
        <g id="z-copy" sketch:type="MSArtboardGroup" transform="translate(-132.000000, -228.000000)" fill="#000000">
            <g id="pool" sketch:type="MSLayerGroup" transform="translate(132.000000, 228.000000)">
                <path d="M19.0018465,9.00065935 L19.0018465,6.9835665 C18.9928616,6.43897152 18.5485903,6.00026374 18.0018534,6.00026374 C17.4494958,6.00026374 17.0017215,6.44803803 17.0017215,7.00039561 C17.0017215,7.00039561 17.0017215,8.00052748 16.0015897,8.00052748 C15.0014578,8.00052748 15.0014578,7.00039561 15.0014578,7.00039561 C15.0014578,5.34332287 16.3447807,4 18.0018534,4 C19.6589261,4 21.002249,5.34332287 21.002249,7.00039561 L21.0021103,7.00039561 L21.0021103,7.00039561 L21.0021103,18.838857 L21.0021103,18.838857 C21.3204495,18.5253827 21.5883612,18.1574373 21.7903134,17.7461367 C22.1585939,16.996088 23.2366274,16.9963303 23.604565,17.7465444 C24.2753948,19.1143469 25.6778036,20.0022836 27.2374303,20.0022836 C28.8339822,20.0022836 30.2167567,19.0782938 30.8706515,17.7434535 C31.2726052,17.0017143 32.2813989,17.0017143 31.8583545,18.0086089 C31.0782753,19.7677816 29.3028242,21.0024589 27.2374303,21.0024589 C25.6551202,21.0024589 24.2400049,20.2778958 23.3143539,19.1448472 C22.6978586,18.5046296 22.6978586,18.5046296 22.080042,19.1447258 C21.1553139,20.2764803 19.7420423,21.0024589 18.158287,21.0024589 C16.5759769,21.0024589 15.1608615,20.2778958 14.2352105,19.1448472 C13.6187153,18.5046296 13.6187153,18.5046296 13.0008986,19.1447258 C12.0761706,20.2764803 10.6628989,21.0024589 9.07914361,21.0024589 C7.4968335,21.0024589 6.08171814,20.2778958 5.15606718,19.1448472 C4.53957193,18.5046296 4.53957193,18.5046296 3.92175526,19.1447258 C2.99702719,20.2764803 1.58375554,21.0024589 2.47618726e-07,21.0024589 C-8.25395707e-08,20.5021758 -8.25395707e-08,20.5021758 2.47618726e-07,20.0022836 C1.55932262,20.0022836 2.96041584,19.113955 3.63202668,17.7461367 C4.00030721,16.996088 5.07834072,16.9963303 5.44627832,17.7465444 C6.1171081,19.1143469 7.51951683,20.0022836 9.07914361,20.0022836 C10.2084898,20.0022836 11.2548377,19.5363157 12.0011662,18.7596993 L12.0011662,6.9835665 C11.9921813,6.43897152 11.54791,6.00026374 11.0011731,6.00026374 C10.4488155,6.00026374 10.0010412,6.44803803 10.0010412,7.00039561 C10.0010412,7.00039561 10.0010412,8.00052748 9.00090936,8.00052748 C8.00077749,8.00052748 8.00077749,7.00039561 8.00077749,7.00039561 C8.00077749,5.34332287 9.34410036,4 11.0011731,4 C12.6582458,4 14.0015687,5.34332287 14.0015687,7.00039561 L14.00143,7.00039561 L14.00143,7.00039561 L14.00143,9.00065935 L19.0018465,9.00065935 L19.0018465,9.00065935 Z M19.0018465,11.0009231 L19.0018465,13.0011868 L14.0014299,13.0011868 L14.00143,11.0009231 L19.0018465,11.0009231 L19.0018465,11.0009231 Z M19.0018465,19.9140877 L19.0018465,19.001978 L19.0018465,19.001978 L15.4889255,19.001978 C16.2101873,19.6322558 17.1514786,20.0022836 18.158287,20.0022836 C18.4460594,20.0022836 18.7284428,19.9720283 19.0018465,19.9140877 L19.0018465,19.9140877 L19.0018465,19.9140877 Z M19.0018465,17.0017143 L19.0018465,15.0014506 L19.0018465,15.0014506 L14.0014299,15.0014506 L14.0014299,17.0017143 L19.0018465,17.0017143 L19.0018465,17.0017143 L19.0018465,17.0017143 Z M13.8017121,28.0035138 C15.3840222,28.0035138 16.7991376,27.2789508 17.7247885,26.1459022 C18.3412838,25.5056846 18.3412838,25.5056846 18.9591005,26.1457808 C19.8838285,27.2775352 21.2971002,28.0035138 22.8808555,28.0035138 C24.4631656,28.0035138 25.8782809,27.2789508 26.8039319,26.1459022 C27.4204272,25.5056846 27.4204272,25.5056846 28.0382438,26.1457808 C28.9629719,27.2775352 30.3762435,28.0035138 31.9599988,28.0035138 C31.9599992,27.5032307 31.9599992,27.5032307 31.9599988,27.0033385 C30.4006765,27.0033385 28.9995832,26.1150099 28.3279724,24.7471917 C27.9596919,23.997143 26.8816584,23.9973852 26.5137208,24.7475993 C25.842891,26.1154019 24.4404823,27.0033385 22.8808555,27.0033385 C21.3215331,27.0033385 19.9204399,26.1150099 19.248829,24.7471917 C18.8805485,23.997143 17.802515,23.9973852 17.4345774,24.7475993 C16.7637476,26.1154019 15.3613389,27.0033385 13.8017121,27.0033385 C12.2423897,27.0033385 10.8412965,26.1150099 10.1696857,24.7471917 C9.80140515,23.997143 8.72337164,23.9973852 8.35543405,24.7475993 C7.68460426,26.1154019 6.28219553,27.0033385 4.72256875,27.0033385 C3.1260169,27.0033385 1.74324243,26.0793487 1.08934756,24.7445084 C0.687393927,24.0027693 -0.321399772,24.0027693 0.101644623,25.0096638 C0.881723753,26.7688366 2.65717485,28.0035138 4.72256875,28.0035138 C6.30487886,28.0035138 7.71999422,27.2789508 8.64564518,26.1459022 C9.26214043,25.5056846 9.26214043,25.5056846 9.87995711,26.1457808 C10.8046852,27.2775352 12.2179568,28.0035138 13.8017121,28.0035138 L13.8017121,28.0035138 Z" sketch:type="MSShapeGroup"></path>
            </g>
        </g>
    </g>
</svg>

<svg width="32" height="32" xmlns="http://www.w3.org/2000/svg"><path d="M19.002 9V6.985a1 1 0 0 0-2 .016s0 1-1 1-1-1-1-1a3 3 0 0 1 6 0V18.84a4.02 4.02 0 0 0 .788-1.093c.369-.75 1.447-.75 1.815 0a4.043 4.043 0 0 0 3.632 2.256c1.597 0 2.98-.924 3.634-2.259.402-.741 1.41-.741.987.266a5.052 5.052 0 0 1-4.62 2.993 5.055 5.055 0 0 1-3.924-1.857c-.616-.64-.616-.64-1.234 0a5.053 5.053 0 0 1-3.922 1.857 5.055 5.055 0 0 1-3.923-1.857c-.616-.64-.616-.64-1.234 0a5.053 5.053 0 0 1-3.922 1.857 5.055 5.055 0 0 1-3.923-1.857c-.616-.64-.616-.64-1.234 0A5.053 5.053 0 0 1 0 21.002v-1c1.56 0 2.96-.888 3.632-2.256.368-.75 1.446-.75 1.814 0a4.043 4.043 0 0 0 3.633 2.256c1.13 0 2.176-.466 2.922-1.242V6.984a1 1 0 0 0-2 .016s0 1-1 1-1-1-1-1a3 3 0 1 1 6 0v2h5Zm0 2v2.001h-5v-2h5Zm0 8.914v-.912h-3.513a4.052 4.052 0 0 0 3.513.912Zm0-2.912v-2h-5v2h5Zm-5.2 11.002a5.055 5.055 0 0 0 3.923-1.858c.616-.64.616-.64 1.234 0a5.053 5.053 0 0 0 3.922 1.858 5.055 5.055 0 0 0 3.923-1.858c.616-.64.616-.64 1.234 0a5.053 5.053 0 0 0 3.922 1.858v-1c-1.56 0-2.96-.889-3.632-2.257-.368-.75-1.446-.75-1.814 0a4.043 4.043 0 0 1-3.633 2.256c-1.56 0-2.96-.888-3.632-2.256-.368-.75-1.446-.75-1.814 0a4.043 4.043 0 0 1-3.633 2.256c-1.56 0-2.96-.888-3.632-2.256-.369-.75-1.447-.75-1.815 0a4.043 4.043 0 0 1-3.632 2.256 4.045 4.045 0 0 1-3.634-2.258c-.402-.742-1.41-.742-.987.265a5.052 5.052 0 0 0 4.62 2.994 5.055 5.055 0 0 0 3.924-1.858c.616-.64.616-.64 1.234 0a5.053 5.053 0 0 0 3.922 1.858Z" fill="#000" fill-rule="evenodd"/></svg>
